X:0441
M:C
L:1/8
Q:1/4=80 "Slow"
K:G
  g2e2 e>gf>e|d<BA>B    e3  g |d3  B c<BA>G|E2G2 G3   ::
d|g3 a b<ag>f|e2(fg) {e}d2 cB |e3  g d<BA>G|E2A2 A>cB>A|
  G3 A B>AB>d|e3  f  {a}g2(fe)|d>edB c>BA>G|E2G2 G3   :|

